X:1
T:Our Lord’s Return to Earth Again
T:Our Lord’s Return to Earth Again
T:James McPherson Kirk
T:James McPherson Kirk, 1894
T:Public Domain Courtesy of the Cyber Hymnal™
T:Public Domain Courtesy of the Cyber Hymnal™
C:James McPherson Kirk
Z:Public Domain
Z:Courtesy of the Cyber Hymnal™
%%score ( 1 2 ) 3
L:1/8
Q:1/4=95
M:4/4
K:G
V:1 treble 
V:2 treble 
V:3 bass 
V:1
 DD | [DG][DG][DG][DA] [GB][GB][DA][DG] | [Gd][Gd][Gd][Gd] [GB]2 [GB][DA] | %3
w: 1.~I am|watch- ing for the com- ing of the|glad mil- len- nial day, When our|
w: 2.~Je- sus’|com- ing back will be the an- swer|to earth’s sor- rowing cry, For the|
w: 3.~Yes, the|ran- somed of the Lord shall come to|Zi- on then with joy, And in|
w: 4.~Then the|sin and sor- row, pain and death of|this dark world shall cease, In a|
 [DG][DG][DG][DA] [GB][GB][DA][DG] | [FA][FA][FA][GB] [FA]2 [GB][DA] | %5
w: bless- èd Lord shall come and catch His|wait- ing bride a- way. Oh! my|
w: know- ledge of the Lord shall fill the|earth and sea and sky. God shall|
w: all His ho- ly mount- ain no- thing|hurts or shall de- stroy. Per- fect|
w: glor- ious reign with Je- sus of a|thou- sand years of peace. All the|
 [DG][DG][DG][DA] [GB][GB][DA][DG] | [EG][EA][EG][CE] [B,D]2 [B,G][CA] | %7
w: heart is filled with rap- ture as I|la- bor, watch, and pray, For our|
w: take a- way all sick- ness and the|suf- ferer’s tears will dry, When our|
w: peace shall reign in ev- ery heart, and|love with- out al- loy, Af- ter|
w: earth is groan- ing, cry- ing for that|day of sweet re- lease, For our|
 [DB]>[DB] [Ec][Ec] [DB]>[DG] [FA]>[DA] | [DG]6 ||"^Refrain" [DB]>[Dc] | %10
w: Lord is com- ing back to earth a-|gain.||
w: Sav- ior will come back to earth a-|gain.|Oh, our|
w: Je- sus shall come back to earth a-|gain.||
w: Je- sus shall come back to earth a-|gain.||
 [Gd]>[Gd] [Gd]>[Gd] [Gd]>[Gd] [GB]>[DA] | G6 [DG]>[DA] | [GB]>[GB] [GB]>[GB] [Gd]>[Gd] [GB]>[DG] | %13
w: |||
w: Lord is com- ing back to earth a-|gain. Yes, our|Lord is com- ing back to earth a-|
w: |||
w: |||
 A6 DD | [DG][DG][DG][DA] [GB][GB][DA][DG] | [EG][DA][EG][CE] [B,D]2 [B,G][CA] | %16
w: |||
w: gain. Sa- tan|will be bound a thou- sand years; we’ll|have no tempt- er then, Af- ter|
w: |||
w: |||
 [DB]>[DB] [Ec][Ec] [DB]>[DG] [FA]>[DA] | [DG]6 |] %18
w: ||
w: Je- sus shall come back to earth a-|gain.|
w: ||
w: ||
V:2
 DD | x8 | x8 | x8 | x8 | x8 | x8 | x8 | x6 || x2 | x8 | (D>DE>E D2) x2 | x8 | (F>FE>E F2) x2 | %14
 x8 | x8 | x8 | x6 |] %18
V:3
 [G,B,][G,B,] | [G,B,][G,B,][G,B,][G,C] [G,D][G,D][G,C][G,B,] | %2
w: ~ ~|~ ~ ~ ~ ~ ~ ~ ~|
 [G,B,][G,B,][G,B,][G,B,] [G,D]2 [G,D][G,C] | [G,B,][G,B,][G,B,][G,C] [G,D][G,D][G,C][G,B,] | %4
w: ~ ~ ~ ~ ~ ~ ~|~ ~ ~ ~ ~ ~ ~ ~|
 [D,D][D,D][D,D][D,D] [D,D]2 [G,D][G,C] | [G,B,][G,B,][G,B,][G,C] [G,D][G,D][G,C][G,B,] | %6
w: ~ ~ ~ ~ ~ ~ ~|~ ~ ~ ~ ~ ~ ~ ~|
 [C,C][C,C][C,C][C,G,] [G,,G,]2 [G,,G,][G,,G,] | G,>G, [C,G,][C,G,] [D,G,]>[D,B,] [D,C]>[D,C] | %8
w: ~ ~ ~ ~ ~ ~ ~|~ ~ ~ ~ ~ ~ ~ ~|
 [G,,B,]6 || G,>[G,A,] | [G,B,]>[G,B,] [G,B,]>[G,B,] [G,B,]>[G,B,] [G,D]>[G,C] | %11
w: ~|~ ~|~ ~ ~ ~ ~ is com- ing|
 [G,B,]>[G,B,][C,C]>[C,C] [G,B,]2 [G,B,]>[G,C] | %12
w: back to earth a- gain ~ ~|
 [G,D]>[G,D] [G,D]>[G,D] [G,B,]>[G,B,] [G,D]>[G,B,] | %13
w: ~ ~ ~ ~ ~ is com- ing|
 [D,D]>[D,D][A,,^C]>[A,,C] [D,D]2 [F,=C][F,C] | [G,B,][G,B,][G,B,][G,C] [G,D][G,D][G,C][G,B,] | %15
w: back to earth a- gain * *||
 [C,C][C,C][C,C][C,G,] [G,,G,]2 [G,,G,][G,,G,] | G,>G, [C,G,][C,G,] [D,G,]>[D,B,] [D,C]>[D,C] | %17
w: ||
 [G,,B,]6 |] %18
w: |

